assets/logos/icons/invoice.svg

<svg height="24" viewBox="0 0 24 24" width="24" xmlns="http://www.w3.org/2000/svg"><path d="m18 1.99999995h-12.00000004c-1.1 0-2 .9-2 2v15.99999995c0 1.1000001.9 2.0000002 2 2l3-2 3.00000004 2 3-2 3 2c1.1.0000002 2-.8999999 2-2v-15.99999995c0-1.1-.9-2-2-2zm0 17.60000005-3-2-3 2-3.00000002-2-3.00000001 2v-15.60000004h12.00000003zm-10.00000002-13.60000003h8.00000002v2h-8.00000002zm0 3.00000001h6.00000002v2.00000002h-6.00000002zm0 3.00000002h8.00000002v2h-8.00000002z" fill="#492f5c" fill-rule="evenodd"/></svg>

<svg xmlns="http://www.w3.org/2000/svg" xmlns:xlink="http://www.w3.org/1999/xlink" width="24" height="24" viewBox="0 0 24 24">
  <defs>
    <path id="invoice-a" d="M18,1.99999995 L5.99999996,1.99999995 C4.89999996,1.99999995 3.99999996,2.89999995 3.99999996,3.99999995 L3.99999996,19.9999999 C3.99999996,21.1 4.89999996,22.0000001 5.99999996,21.9999999 L8.99999996,19.9999999 L12,21.9999999 L15,19.9999999 L18,21.9999999 C19.1,22.0000001 20,21.1 20,19.9999999 L20,3.99999995 C20,2.89999995 19.1,1.99999995 18,1.99999995 Z M18,19.6 L15,17.6 L12,19.6 L8.99999998,17.6 L5.99999997,19.6 L5.99999997,3.99999996 L18,3.99999996 L18,19.6 Z M7.99999998,5.99999997 L16,5.99999997 L16,7.99999997 L7.99999998,7.99999997 L7.99999998,5.99999997 Z M7.99999998,8.99999998 L14,8.99999998 L14,11 L7.99999998,11 L7.99999998,8.99999998 Z M7.99999998,12 L16,12 L16,14 L7.99999998,14 L7.99999998,12 Z"/>
  </defs>
  <use fill="#492F5C" fill-rule="evenodd" xlink:href="#invoice-a"/>
</svg>
